src/lib/packages/icons/src/assets/line/user-times-alt.svg

<svg width="24" height="24" viewBox="0 0 24 24" fill="none" xmlns="http://www.w3.org/2000/svg">
<path d="M21.53 11.47C21.823 11.763 21.823 12.238 21.53 12.531C21.384 12.677 21.192 12.751 21 12.751C20.808 12.751 20.616 12.678 20.47 12.531L19 11.061L17.53 12.531C17.384 12.677 17.192 12.751 17 12.751C16.808 12.751 16.616 12.678 16.47 12.531C16.177 12.238 16.177 11.763 16.47 11.47L17.9399 10L16.47 8.53003C16.177 8.23703 16.177 7.76199 16.47 7.46899C16.763 7.17599 17.238 7.17599 17.531 7.46899L19.001 8.93896L20.4709 7.46899C20.7639 7.17599 21.239 7.17599 21.532 7.46899C21.825 7.76199 21.825 8.23703 21.532 8.53003L20.062 10L21.53 11.47ZM5.75903 6.5C5.75903 4.157 7.66503 2.25 10.009 2.25C12.353 2.25 14.259 4.157 14.259 6.5C14.259 8.843 12.353 10.75 10.009 10.75C7.66503 10.75 5.75903 8.843 5.75903 6.5ZM7.25903 6.5C7.25903 8.017 8.49203 9.25 10.009 9.25C11.526 9.25 12.759 8.017 12.759 6.5C12.759 4.983 11.526 3.75 10.009 3.75C8.49203 3.75 7.25903 4.983 7.25903 6.5ZM12 12.25H8C3.756 12.25 2.25 15.357 2.25 18.019V21C2.25 21.414 2.586 21.75 3 21.75C3.414 21.75 3.75 21.414 3.75 21V18.019C3.75 17.018 4.057 13.75 8 13.75H12C15.943 13.75 16.25 17.017 16.25 18.019V21C16.25 21.414 16.586 21.75 17 21.75C17.414 21.75 17.75 21.414 17.75 21V18.019C17.75 15.357 16.244 12.25 12 12.25Z" fill="currentColor"/>
</svg>

<svg xmlns="http://www.w3.org/2000/svg" width="24" height="24" fill="none"><path fill="currentColor" d="M21.53 11.47a.75.75 0 0 1-1.06 1.061L19 11.061l-1.47 1.47a.748.748 0 0 1-1.06 0 .75.75 0 0 1 0-1.061L17.94 10l-1.47-1.47a.75.75 0 0 1 1.061-1.061l1.47 1.47 1.47-1.47a.75.75 0 0 1 1.061 1.061L20.062 10l1.468 1.47ZM5.759 6.5a4.255 4.255 0 0 1 4.25-4.25 4.255 4.255 0 0 1 4.25 4.25 4.255 4.255 0 0 1-4.25 4.25 4.255 4.255 0 0 1-4.25-4.25Zm1.5 0a2.752 2.752 0 0 0 2.75 2.75 2.752 2.752 0 0 0 2.75-2.75 2.752 2.752 0 0 0-2.75-2.75 2.752 2.752 0 0 0-2.75 2.75ZM12 12.25H8c-4.244 0-5.75 3.107-5.75 5.769V21a.75.75 0 0 0 1.5 0v-2.981c0-1.001.307-4.269 4.25-4.269h4c3.943 0 4.25 3.267 4.25 4.269V21a.75.75 0 0 0 1.5 0v-2.981c0-2.662-1.506-5.769-5.75-5.769Z"/></svg>
